T: Blacksmith's, The
M: 4/4
L: 1/8
K: Gmaj
|:dB B2 dBGB | dB B2 ABcA | dB B2 dBGB | cABG ABcA |
dB B2 dGBd | GBdG ABcA | DB B2 dBGB | cABG ABcA ||
|:G2 BG DGBG | BDGB ABcA | G2 BG DGBG | cABG AdcA |
G2 BG DG G2 | G2 BG ABcA | GBDG BDGB | cABG ABcA||
